packages/foundations/assets/icons/functional/images/devices/mobile_phone_disabled_16.svg

<svg width="16" height="16" viewBox="0 0 16 16" fill="none" xmlns="http://www.w3.org/2000/svg">
<g clip-path="url(#clip0_185_741)">
<path fill-rule="evenodd" clip-rule="evenodd" d="M2.40002 12.7875C2.40002 13.2375 2.80002 13.6125 3.22498 13.6125C3.42498 13.6125 3.60002 13.5375 3.77506 13.3625L13.3751 3.76249C13.55 3.61249 13.6 3.41249 13.6 3.21249C13.6 2.78753 13.2751 2.38753 12.825 2.38753C12.6 2.38753 12.4 2.48753 12.25 2.63753L12 2.86249C11.9751 2.16249 11.425 1.61249 10.725 1.61249H5.32498C4.60002 1.61249 4.00002 2.18753 4.00002 2.88753V10.8625L2.65002 12.2375C2.47506 12.4125 2.40002 12.6125 2.40002 12.7875ZM5.00002 14.3875H10.725C11.45 14.3875 12 13.8125 12 13.1125V7.38753L10.4 8.98753V12.8125H6.60002L5.00002 14.3875ZM5.60002 9.26249V3.21249H6.40002V4.01249H9.60002V3.21249H10.4V4.46249L5.60002 9.26249ZM7.40002 12.0125H8.82498V10.5875L7.40002 12.0125Z" fill="#1A1C1F"/>
</g>
<defs>
<clipPath id="clip0_185_741">
<rect width="16" height="16" fill="white"/>
</clipPath>
</defs>
</svg>

<svg xmlns="http://www.w3.org/2000/svg" width="16" height="16" fill="none"><g clip-path="url(#a)"><path fill="#1A1C1F" fill-rule="evenodd" d="M2.4 12.788c0 .45.4.825.825.825.2 0 .375-.075.55-.25l9.6-9.6c.175-.15.225-.35.225-.55 0-.425-.325-.825-.775-.825-.225 0-.425.1-.575.25l-.25.224a1.275 1.275 0 0 0-1.275-1.25h-5.4C4.6 1.612 4 2.188 4 2.888v7.975l-1.35 1.375a.8.8 0 0 0-.25.55m2.6 1.6h5.725c.725 0 1.275-.575 1.275-1.275V7.388l-1.6 1.6v3.825H6.6zm.6-5.126v-6.05h.8v.8h3.2v-.8h.8v1.25zm1.8 2.75h1.425v-1.424z" clip-rule="evenodd"/></g><defs><clipPath id="a"><path fill="#fff" d="M0 0h16v16H0z"/></clipPath></defs></svg>
